packages/tokens/icons/card2/size16Px.svg

<svg viewBox="0 0 16 16" fill="none" xmlns="http://www.w3.org/2000/svg" width="1em" height="1em"><path d="M13.5 8.5H14C14.2761 8.5 14.5 8.27614 14.5 8L14.5 2C14.5 1.72386 14.2761 1.5 14 1.5L5 1.5C4.72386 1.5 4.5 1.72386 4.5 2L4.5 5.21155" stroke="currentColor" stroke-linecap="round"/><path d="M4.5 3.5L14.5 3.5" stroke="currentColor" stroke-linecap="round"/><path d="M1.5 8C1.5 7.72386 1.72386 7.5 2 7.5L11 7.5C11.2761 7.5 11.5 7.72386 11.5 8L11.5 14C11.5 14.2761 11.2761 14.5 11 14.5L2 14.5C1.72386 14.5 1.5 14.2761 1.5 14L1.5 8Z" stroke="currentColor"/><rect x="3" y="9" width="2" height="2" rx="0.5" fill="currentColor"/><circle cx="9.5" cy="12.5" r="0.25" stroke="currentColor" stroke-width="0.5"/></svg>

<svg xmlns="http://www.w3.org/2000/svg" fill="none" viewBox="0 0 16 16" width="1em" height="1em"><path stroke="currentColor" stroke-linecap="round" d="M13.5 8.5h.5a.5.5 0 0 0 .5-.5V2a.5.5 0 0 0-.5-.5H5a.5.5 0 0 0-.5.5v3.212m0-1.712h10"/><path stroke="currentColor" d="M1.5 8a.5.5 0 0 1 .5-.5h9a.5.5 0 0 1 .5.5v6a.5.5 0 0 1-.5.5H2a.5.5 0 0 1-.5-.5V8Z"/><rect width="2" height="2" x="3" y="9" fill="currentColor" rx=".5"/><circle cx="9.5" cy="12.5" r=".25" stroke="currentColor" stroke-width=".5"/></svg>
